X: 1
T: Last Night's Fun
M: 4/4
L: 1/8
R: reel
K: Em
V: Melody
|: "D" ADFD A2B  | "D" ADFD "A" EFGB  | "D" ADFD "D/F#" A2Bd | "G" egfe "A" DBAB :|
|  "D" dfff afff | "D" defd "A" egfe  | "D" dfff "D/F#" afff | "G" egfe "A" dBAB |
|  "D" dfff afff | "D" defd "A" e2 fg | "G" a2 ab afda       | "G" gefd "A" edBd |
